jsapp/svg-icons/custom-reports.svg

<svg height="40" viewBox="0 0 40 40" width="40" xmlns="http://www.w3.org/2000/svg"><path d="m25.9820076 18.0641581c-.6981067.0886589-1.3681381.267287-1.9981061.5238959v-5.588054h-13.98674241v10h9.58435791c-.2552993.6306962-.4325041 1.3013599-.5196232 2h-1.0723105v2h-1.998106v-2h-8.9914773v-2h.99905303v-10c-.55147727 0-.99905303-.448-.99905303-1v-3c0-.552.44757576-1 .99905303-1h17.98295457c.5524763 0 .999053.448.999053 1v3c0 .552-.4465767 1-.999053 1zm-16.98390154-8.0641581v1h15.98484844v-1zm9.88941764 4.5534983 1.4915861 2.987 2.6095266-1.742v2.404l-2.4426847 1.63c-.2387737.159-.5314962.209-.810232.135-.2767377-.074-.509517-.263-.6373958-.519l-1.0030493-2.009-1.1718892 2.933c-.1248816.312-.3976231.54-.7263115.608-.3286885.07-.6693656-.035-.9081392-.273l-1.4186553-1.42-2.8702794 1.915v-2.404l2.4436837-1.63c.395625-.264.9241241-.212 1.2608049.125l.9261222.928 1.4356392-3.592c.1458617-.366.4925331-.611.88616-.628.3926279-.022.7592803.2.9351137.552zm14.1031108 12.4465017h-1.1009565c-.1298769.637-.3836363 1.228-.7303077 1.752l.7822585.783-1.4116619 1.415-.7832576-.783c-.5235038.347-1.1149432.602-1.75134.732v1.101h-1.998106v-1.101c-.6363968-.13-1.2278362-.384-1.75134-.731l-.7822585.784-1.4136601-1.413.7822586-.785c-.3476705-.525-.60143-1.116-.7313069-1.754h-1.1009564v-2h1.1009564c.1298769-.637.3836364-1.228.7313069-1.753l-.7822586-.782 1.411662-1.415.7832575.783c.5245029-.347 1.1149432-.602 1.75134-.732v-1.101h1.9981061v1.101c.6363967.13 1.2268371.385 1.7503409.732l.7842566-.785 1.4116619 1.415-.7832575.783c.3486695.525.6024289 1.117.7323058 1.754h1.1009565zm-5.9963163 1c1.1029545 0 1.998106-.897 1.998106-2 0-1.105-.8951515-2-1.998106-2-1.1049527 0-1.9981061.895-1.9981061 2 0 1.103.8931534 2 1.9981061 2z" fill-rule="evenodd"/></svg>

<?xml version="1.0" encoding="UTF-8"?>
<svg width="40px" height="40px" viewBox="0 0 40 40" version="1.1" xmlns="http://www.w3.org/2000/svg" xmlns:xlink="http://www.w3.org/1999/xlink">
    <!-- Generator: Sketch 50.2 (55047) - http://www.bohemiancoding.com/sketch -->
    <title>Icons/custom-reports</title>
    <desc>Created with Sketch.</desc>
    <defs>
        <path d="M25.9820076,18.0641581 C25.2839009,18.152817 24.6138695,18.3314451 23.9839015,18.588054 L23.9839015,13 L9.99715909,13 L9.99715909,23 L19.581517,23 C19.3262177,23.6306962 19.1490129,24.3013599 19.0618938,25 L17.9895833,25 L17.9895833,27 L15.9914773,27 L15.9914773,25 L7,25 L7,23 L7.99905303,23 L7.99905303,13 C7.44757576,13 7,12.552 7,12 L7,9 C7,8.448 7.44757576,8 7.99905303,8 L25.9820076,8 C26.5344839,8 26.9810606,8.448 26.9810606,9 L26.9810606,12 C26.9810606,12.552 26.5344839,13 25.9820076,13 L25.9820076,18.0641581 Z M8.99810606,10 L8.99810606,11 L24.9829545,11 L24.9829545,10 L8.99810606,10 Z M18.8875237,14.5534983 L20.3791098,17.5404983 L22.9886364,15.7984983 L22.9886364,18.2024983 L20.5459517,19.8324983 C20.307178,19.9914983 20.0144555,20.0414983 19.7357197,19.9674983 C19.458982,19.8934983 19.2262027,19.7044983 19.0983239,19.4484983 L18.0952746,17.4394983 L16.9233854,20.3724983 C16.7985038,20.6844983 16.5257623,20.9124983 16.1970739,20.9804983 C15.8683854,21.0504983 15.5277083,20.9454983 15.2889347,20.7074983 L13.8702794,19.2874983 L11,21.2024983 L11,18.7984983 L13.4436837,17.1684983 C13.8393087,16.9044983 14.3678078,16.9564983 14.7044886,17.2934983 L15.6306108,18.2214983 L17.06625,14.6294983 C17.2121117,14.2634983 17.5587831,14.0184983 17.95241,14.0014983 C18.3450379,13.9794983 18.7116903,14.2014983 18.8875237,14.5534983 Z M32.9906345,27 L31.889678,27 C31.7598011,27.637 31.5060417,28.228 31.1593703,28.752 L31.9416288,29.535 L30.5299669,30.95 L29.7467093,30.167 C29.2232055,30.514 28.6317661,30.769 27.9953693,30.899 L27.9953693,32 L25.9972633,32 L25.9972633,30.899 C25.3608665,30.769 24.7694271,30.515 24.2459233,30.168 L23.4636648,30.952 L22.0500047,29.539 L22.8322633,28.754 C22.4845928,28.229 22.2308333,27.638 22.1009564,27 L21,27 L21,25 L22.1009564,25 C22.2308333,24.363 22.4845928,23.772 22.8322633,23.247 L22.0500047,22.465 L23.4616667,21.05 L24.2449242,21.833 C24.7694271,21.486 25.3598674,21.231 25.9962642,21.101 L25.9962642,20 L27.9943703,20 L27.9943703,21.101 C28.630767,21.231 29.2212074,21.486 29.7447112,21.833 L30.5289678,21.048 L31.9406297,22.463 L31.1573722,23.246 C31.5060417,23.771 31.7598011,24.363 31.889678,25 L32.9906345,25 L32.9906345,27 Z M26.9943182,28 C28.0972727,28 28.9924242,27.103 28.9924242,26 C28.9924242,24.895 28.0972727,24 26.9943182,24 C25.8893655,24 24.9962121,24.895 24.9962121,26 C24.9962121,27.103 25.8893655,28 26.9943182,28 Z" id="path-1"></path>
    </defs>
    <g id="Icons/custom-reports" stroke="none" stroke-width="1" fill="none" fill-rule="evenodd">
        <mask id="mask-2" fill="white">
            <use xlink:href="#path-1"></use>
        </mask>
        <use id="Mask" fill="#000000" xlink:href="#path-1"></use>
    </g>
</svg>
